img/SAUNA/icon/swimming.svg

<svg width="30" height="30" viewBox="0 0 30 30" fill="none" xmlns="http://www.w3.org/2000/svg">
<g clip-path="url(#clip0_634_22389)">
<path d="M11.5543 21.9536V17.3269H18.4114V21.9632C18.7839 21.8607 19.222 21.7947 19.7614 21.7947C19.7884 21.7947 19.8135 21.7959 19.84 21.7962V6.84552C19.84 4.44445 21.7934 2.49095 24.1946 2.49095C26.5957 2.49095 28.5492 4.44445 28.5492 6.84552C28.5492 7.23995 28.869 7.55981 29.2635 7.55981C29.658 7.55981 29.9777 7.23995 29.9777 6.84552C29.9777 3.65666 27.3834 1.06238 24.1946 1.06238C21.0057 1.06238 18.4114 3.65666 18.4114 6.84552V9.61259H11.5543V6.84552C11.5543 4.44445 13.5077 2.49095 15.9089 2.49095C16.4755 2.49095 17.0264 2.59802 17.5462 2.80909C17.9116 2.95759 18.3283 2.78159 18.4768 2.41609C18.6252 2.05059 18.4493 1.63395 18.0838 1.48559C17.3924 1.20474 16.6607 1.06238 15.9089 1.06238C12.7201 1.06238 10.1257 3.65666 10.1257 6.84552V21.797C10.1632 21.7964 10.1992 21.7948 10.2377 21.7948C10.7608 21.7948 11.1892 21.8564 11.5543 21.9536ZM11.5543 11.0412H18.4114V15.8983H11.5543V11.0412Z" fill="#2F2F2F" stroke="#2F2F2F"/>
<path d="M0.714387 23.2234C1.70696 23.2234 2.15746 23.4937 2.72782 23.8359C3.36532 24.2184 4.08789 24.6519 5.47617 24.6519C6.86446 24.6519 7.58696 24.2184 8.22446 23.8359C8.79474 23.4937 9.24524 23.2234 10.2377 23.2234C11.2303 23.2234 11.6809 23.4937 12.2512 23.8359C12.8887 24.2184 13.6113 24.6519 14.9996 24.6519C16.3879 24.6519 17.1105 24.2184 17.7481 23.8359C18.3185 23.4937 18.769 23.2234 19.7616 23.2234C20.7543 23.2234 21.2048 23.4937 21.7752 23.8359C22.4128 24.2184 23.1354 24.6519 24.5237 24.6519C25.9121 24.6519 26.6347 24.2184 27.2723 23.8359C27.8427 23.4937 28.2932 23.2234 29.286 23.2234C29.6805 23.2234 30.0002 22.9035 30.0002 22.5091C30.0002 22.1147 29.6805 21.7948 29.286 21.7948C27.8975 21.7948 27.175 22.2283 26.5374 22.6109C25.967 22.9531 25.5165 23.2234 24.5238 23.2234C23.5311 23.2234 23.0806 22.9531 22.5102 22.6109C21.8851 22.2358 21.1765 21.8127 19.8402 21.7964C19.8137 21.7961 19.7887 21.7949 19.7617 21.7949C19.2222 21.7949 18.7842 21.8608 18.4117 21.9633C17.8255 22.1246 17.403 22.377 17.0132 22.6109C16.4428 22.9532 15.9924 23.2234 14.9997 23.2234C14.0072 23.2234 13.5567 22.9532 12.9863 22.6109C12.589 22.3726 12.1585 22.1144 11.5545 21.9537C11.1894 21.8565 10.761 21.7949 10.2379 21.7949C10.1995 21.7949 10.1634 21.7964 10.126 21.7971C8.8116 21.8201 8.10946 22.2391 7.4896 22.6109C6.91932 22.9532 6.46882 23.2234 5.47632 23.2234C4.48374 23.2234 4.03324 22.9532 3.46296 22.6109C2.82546 22.2284 2.10282 21.7949 0.71453 21.7949C0.32003 21.7949 0.000244188 22.1147 0.000244188 22.5092C0.000101331 22.9035 0.319887 23.2234 0.714387 23.2234Z" fill="#2F2F2F" stroke="#2F2F2F"/>
<path d="M29.2857 26.0805C27.8973 26.0805 27.1747 26.514 26.5371 26.8966C25.9668 27.2388 25.5163 27.5091 24.5236 27.5091C23.5309 27.5091 23.0804 27.2388 22.51 26.8966C21.8724 26.5141 21.1499 26.0805 19.7614 26.0805C18.3731 26.0805 17.6505 26.514 17.0129 26.8966C16.4426 27.2388 15.9921 27.5091 14.9995 27.5091C14.0069 27.5091 13.5564 27.2388 12.9861 26.8966C12.3486 26.5141 11.6259 26.0805 10.2376 26.0805C8.84936 26.0805 8.12686 26.5141 7.48936 26.8966C6.91907 27.2388 6.46857 27.5091 5.47607 27.5091C4.4835 27.5091 4.033 27.2388 3.46271 26.8966C2.82521 26.5141 2.10257 26.0805 0.714286 26.0805C0.319786 26.0805 0 26.4004 0 26.7948C0 27.1892 0.319786 27.5091 0.714286 27.5091C1.70686 27.5091 2.15736 27.7794 2.72771 28.1216C3.36521 28.5041 4.08779 28.9376 5.47607 28.9376C6.86436 28.9376 7.58686 28.5041 8.22436 28.1216C8.79464 27.7794 9.24514 27.5091 10.2376 27.5091C11.2302 27.5091 11.6808 27.7794 12.2511 28.1216C12.8886 28.5041 13.6112 28.9376 14.9995 28.9376C16.3878 28.9376 17.1104 28.5041 17.748 28.1216C18.3184 27.7794 18.7689 27.5091 19.7615 27.5091C20.7542 27.5091 21.2047 27.7794 21.7751 28.1216C22.4127 28.5041 23.1353 28.9376 24.5236 28.9376C25.912 28.9376 26.6346 28.5041 27.2722 28.1216C27.8426 27.7794 28.2931 27.5091 29.2859 27.5091C29.6804 27.5091 30.0001 27.1892 30.0001 26.7948C30 26.4003 29.6802 26.0805 29.2857 26.0805Z" fill="#2F2F2F" stroke="#2F2F2F"/>
</g>
<defs>
<clipPath id="clip0_634_22389">
<rect width="30" height="30" fill="white"/>
</clipPath>
</defs>
</svg>

<svg width="30" height="30" viewBox="0 0 30 30" fill="none" xmlns="http://www.w3.org/2000/svg"><g clip-path="url(#clip0_634_22389)" fill="#2F2F2F" stroke="#2F2F2F"><path d="M11.554 21.954v-4.627h6.857v4.636a5.056 5.056 0 011.35-.168l.079.001V6.846a4.36 4.36 0 014.355-4.355 4.36 4.36 0 014.354 4.355.714.714 0 001.429 0 5.79 5.79 0 00-5.783-5.784 5.79 5.79 0 00-5.784 5.784v2.767h-6.857V6.846a4.36 4.36 0 015.992-4.037.714.714 0 00.538-1.323 5.79 5.79 0 00-7.958 5.36v14.951l.112-.002c.523 0 .951.061 1.316.159zm0-10.913h6.857v4.857h-6.857v-4.857z"/><path d="M.714 23.223c.993 0 1.443.27 2.014.613.637.382 1.36.816 2.748.816 1.388 0 2.111-.434 2.748-.816.57-.342 1.021-.613 2.014-.613.992 0 1.443.27 2.013.613.638.382 1.36.816 2.749.816 1.388 0 2.11-.434 2.748-.816.57-.342 1.021-.613 2.014-.613.992 0 1.443.27 2.013.613.638.382 1.36.816 2.749.816 1.388 0 2.11-.434 2.748-.816.57-.342 1.021-.613 2.014-.613a.714.714 0 000-1.428c-1.389 0-2.111.433-2.749.816-.57.342-1.02.612-2.013.612-.993 0-1.443-.27-2.014-.612-.625-.375-1.334-.798-2.67-.815l-.078-.001c-.54 0-.978.066-1.35.168-.586.162-1.009.414-1.399.648-.57.342-1.02.612-2.013.612-.993 0-1.443-.27-2.014-.612-.397-.238-.828-.497-1.431-.657a5.067 5.067 0 00-1.317-.16c-.038 0-.075.002-.112.003-1.314.023-2.017.442-2.636.814-.57.342-1.021.612-2.014.612-.992 0-1.443-.27-2.013-.612-.638-.383-1.36-.816-2.748-.816a.714.714 0 000 1.428zm28.572 2.857c-1.389 0-2.111.434-2.749.817-.57.342-1.02.612-2.013.612-.993 0-1.444-.27-2.014-.612-.638-.383-1.36-.816-2.749-.816-1.388 0-2.11.433-2.748.816-.57.342-1.02.612-2.014.612-.992 0-1.443-.27-2.013-.612-.637-.383-1.36-.816-2.748-.816-1.389 0-2.111.433-2.749.816-.57.342-1.02.612-2.013.612-.992 0-1.443-.27-2.013-.612-.638-.383-1.36-.816-2.749-.816a.714.714 0 000 1.428c.993 0 1.443.27 2.014.613.637.382 1.36.816 2.748.816 1.388 0 2.11-.434 2.748-.816.57-.343 1.021-.613 2.014-.613.992 0 1.443.27 2.013.613.638.382 1.36.816 2.748.816 1.389 0 2.111-.434 2.749-.816.57-.343 1.02-.613 2.014-.613.992 0 1.443.27 2.013.613.638.382 1.36.816 2.749.816 1.388 0 2.11-.434 2.748-.816.57-.343 1.021-.613 2.014-.613a.714.714 0 100-1.428z"/></g><defs><clipPath id="clip0_634_22389"><path fill="#fff" d="M0 0h30v30H0z"/></clipPath></defs></svg>
